X:16
T:Hiland Ladie
Z:Jack Campin, http://www.campin.me.uk/
F:Jack Campin's Nine-Note Tunebook
% last edit 03-02-2013
S:Blaikie MS (NLS MS.1578) p7, Blaikie #16
M:2/4
L:1/8
Q:1/4=100
K:C
AA```````AG      |c2 E2 |DD`DE |DD`DE |
GG```````GE      |G2 E2 |CC`CE |CC`CE||
A/G/A/B/ c/B/A/G/|c2 E2 |DD`DE |DD`DE |
G/E/G/A/ G/E/G/A/|G2 E2 |CC`CE |CC`CE|]

